X:4
T:Husaren-Marsch D&A (tinwhistle in D) solo
T:mr02040 (Hanny Christen)
%%MIDI program 72   % 111 /74 / 79=whistle
O:Switzerland
R:Marsch
M:2/4
L:1/8
K:D transpose=12
A/2A/2 |AF B>A | AF B>A | A>F B>A | A^G =Gd | c>g B>d | cgc2 | 
ce B>c | edd2 | AF B>A | AF B>A | AF d>c | cBB2 | g>g fe | 
e/2d/2e/2f/2 ed | A>g gc | df dA || d>c B>A | F3A/2B/2 | F3A/2B/2 | G3A | dc BA | G3A/2B/2 | 
c>B A>G | FE DA | dc BA | F3A | d3c | e3e | e>e ^de | fA df | g3c | 
dd dz || [K:A] A3c | f3e | A>c A>e | "_#"G3B | B>c d>e | "_#"g3f | d>e B>d | c2z2 | 
A3c | e3e | e>e ^de | f3z | F>d cB | BA "_#"GF | E^D/2E/2 c>B | AA Az |]
% mr02040
% Oct 1, 2016

